X:60
T:Surgeon Hall. ThoH.060
Q:1/2=80
M:C
L:1/8
B:Thompson's Compleat Collection of 120 Favourite Hornpipes.
Z:Village Music Project, Simon Wilson 2016
O:England.
K:Eb
(EGBe) (dfed)|e2B2(cA)(ec)|(BGFE)D4|(fBag) (fedc)|
(dBcd) (eBGE)|(cAFE)D2B,2|(EGBe) (dfed)|e2B2(gfed)|
(edcB)A2F2|(fedc) (BAGF)|GBe2(df)(Bd)|(ce=Ac)B2B,2:|
|:(dfBd) (ce=Ac)|B2B,2 (egce)|(df=Bd)c2C2|(CDEF) (Gc=Bc)|
(dcB=A) (GFED)|(Ec)(D=B)c2C2|(EGBe) (BGE_d)|c2A,2(F=Acf)|
(c=AFe)d2B,2|(Bdfb) (agfe)|(dcBA) GBe2|1Fedfe2E2:|2Fedfe4|]

